X:1
T:Title
%%score { ( 1 3 ) | ( 2 4 ) }
L:1/8
Q:1/4=110
M:4/4
K:F
V:1 treble nm="Grand Piano"
V:3 treble 
V:2 bass 
V:4 bass 
V:1
 F2 G2 A2 F2 | [EG]2 [FA]2 [EG]4 | A2 c>d c2 A2 | [FA]4 [EG]4 | F2 G2 A2 F2 | [EG]2 [FA]2 [EG]4 | %6
w: Robert~Lowry * * *||||||
 A2 c>d c2 A2 | [EG]4 F4 | A2 c2 c2 A2 | [EG]2 [FA]2 [GB]4 | A2 A2 B2 A2 | c2 G2 [EG]4 | %12
w: ||||||
 A2 G2 F2 G2 | A2 [DFB]2 [FA]2 G2 | A2 c>d c2 A2 | [EG]4 F4 |] %16
w: ||||
V:2
 [F,A,]2 [F,B,F]2 [F,CF]2 [F,A,C]2 | [C,C]2 [C,C]2 [C,C]4 | %2
 [F,CF]2 [F,A,F]>[F,B,F] [F,A,F]2 [F,CF]2 | [C,C]4 [C,C]4 | [F,A,]2 [F,B,F]2 [F,CF]2 [F,A,]2 | %5
 [C,C]2 [C,C]2 [C,C]4 | [F,CF]2 [F,A,F]>[F,B,F] [F,A,F]2 [F,CF]2 | [C,B,]4 [F,A,]4 | %8
 [F,CF]2 [F,A,F]2 [F,A,F]2 [F,CF]2 | [C,C]2 [C,C]2 [C,C]4 | [F,CF]2 [F,CF]2 [F,DF]2 [F,CF]2 | %11
 [F,A,F]2 [G,=B,F]2[K:bass] [C,C]4 | [F,CF]2 [B,CE]2 [A,C]2 [G,CE]2 | [F,CF]2 B,,2 z2 E2 | %14
 [F,CF]2 [F,A,F]>[F,B,F] [F,A,F]2 [F,CF]2 | [C,B,]4 [F,A,]4 |] %16
V:3
 x8 | x8 | x8 | x8 | x8 | x8 | x8 | x8 | x8 | x8 | x8 | x8 | x8 | z4 C4 | x8 | x8 |] %16
V:4
 x8 | x8 | x8 | x8 | x8 | x8 | x8 | x8 | x8 | x8 | x8 | x4[K:bass] x4 | x8 | z4 C,4 | x8 | x8 |] %16

